www/assets/icons/local_car_wash.svg

<svg width="24" height="24" viewBox="0 0 24 24" xmlns="http://www.w3.org/2000/svg" fill='currentColor'><path d="M17 5.0999C17.83 5.0999 18.5 4.4299 18.5 3.5999C18.5 2.5999 17 0.899902 17 0.899902C17 0.899902 15.5 2.5999 15.5 3.5999C15.5 4.4299 16.17 5.0999 17 5.0999ZM12 5.0999C12.83 5.0999 13.5 4.4299 13.5 3.5999C13.5 2.5999 12 0.899902 12 0.899902C12 0.899902 10.5 2.5999 10.5 3.5999C10.5 4.4299 11.17 5.0999 12 5.0999ZM7 5.0999C7.83 5.0999 8.5 4.4299 8.5 3.5999C8.5 2.5999 7 0.899902 7 0.899902C7 0.899902 5.5 2.5999 5.5 3.5999C5.5 4.4299 6.17 5.0999 7 5.0999ZM18.92 8.1099C18.72 7.5199 18.16 7.0999 17.5 7.0999H6.5C5.84 7.0999 5.29 7.5199 5.08 8.1099L3 14.0999V22.0999C3 22.6499 3.45 23.0999 4 23.0999H5C5.55 23.0999 6 22.6499 6 22.0999V21.0999H18V22.0999C18 22.6499 18.45 23.0999 19 23.0999H20C20.55 23.0999 21 22.6499 21 22.0999V14.0999L18.92 8.1099ZM6.5 18.0999C5.67 18.0999 5 17.4299 5 16.5999C5 15.7699 5.67 15.0999 6.5 15.0999C7.33 15.0999 8 15.7699 8 16.5999C8 17.4299 7.33 18.0999 6.5 18.0999ZM17.5 18.0999C16.67 18.0999 16 17.4299 16 16.5999C16 15.7699 16.67 15.0999 17.5 15.0999C18.33 15.0999 19 15.7699 19 16.5999C19 17.4299 18.33 18.0999 17.5 18.0999ZM5 13.0999L6.5 8.5999H17.5L19 13.0999H5Z"/></svg>

<svg xmlns="http://www.w3.org/2000/svg" width="24" height="24" viewBox="0 0 24 24" fill='currentColor'><path d="M17 5.1c.83 0 1.5-.67 1.5-1.5 0-1-1.5-2.7-1.5-2.7s-1.5 1.7-1.5 2.7c0 .83.67 1.5 1.5 1.5m-5 0c.83 0 1.5-.67 1.5-1.5 0-1-1.5-2.7-1.5-2.7s-1.5 1.7-1.5 2.7c0 .83.67 1.5 1.5 1.5m-5 0c.83 0 1.5-.67 1.5-1.5C8.5 2.6 7 .9 7 .9S5.5 2.6 5.5 3.6c0 .83.67 1.5 1.5 1.5m11.92 3.01c-.2-.59-.76-1.01-1.42-1.01h-11c-.66 0-1.21.42-1.42 1.01L3 14.1v8c0 .55.45 1 1 1h1c.55 0 1-.45 1-1v-1h12v1c0 .55.45 1 1 1h1c.55 0 1-.45 1-1v-8zM6.5 18.1c-.83 0-1.5-.67-1.5-1.5s.67-1.5 1.5-1.5 1.5.67 1.5 1.5-.67 1.5-1.5 1.5m11 0c-.83 0-1.5-.67-1.5-1.5s.67-1.5 1.5-1.5 1.5.67 1.5 1.5-.67 1.5-1.5 1.5M5 13.1l1.5-4.5h11l1.5 4.5z"/></svg>
